inst/assets/svg/wi-day-sunny-overcast.svg

<?xml version="1.0" encoding="UTF-8"?>
<svg xmlns="http://www.w3.org/2000/svg" xmlns:xlink="http://www.w3.org/1999/xlink" width="30pt" height="30pt" viewBox="0 0 30 30" version="1.1">
<g id="surface156">
<path style=" stroke:none;fill-rule:nonzero;fill:rgb(0%,0%,0%);fill-opacity:1;" d="M 3.089844 13.429688 C 3.089844 13.699219 3.179688 13.921875 3.371094 14.101563 C 3.558594 14.28125 3.800781 14.359375 4.089844 14.359375 L 5.78125 14.359375 C 6.050781 14.359375 6.28125 14.269531 6.46875 14.089844 C 6.660156 13.910156 6.761719 13.691406 6.761719 13.429688 C 6.761719 13.140625 6.671875 12.898438 6.480469 12.71875 C 6.289063 12.539063 6.058594 12.441406 5.789063 12.441406 L 4.089844 12.441406 C 3.800781 12.441406 3.558594 12.53125 3.371094 12.71875 C 3.179688 12.890625 3.089844 13.128906 3.089844 13.429688 Z M 4.859375 19.609375 C 4.859375 20.578125 5.210938 21.421875 5.921875 22.128906 C 6.628906 22.839844 7.460938 23.191406 8.429688 23.191406 L 15.289063 23.191406 C 16.261719 23.191406 17.089844 22.839844 17.78125 22.140625 C 18.46875 21.441406 18.820313 20.601563 18.820313 19.609375 C 18.820313 19.128906 18.75 18.71875 18.609375 18.378906 C 19.441406 17.851563 20.101563 17.140625 20.578125 16.261719 C 21.058594 15.378906 21.308594 14.429688 21.308594 13.421875 C 21.308594 12.609375 21.148438 11.828125 20.828125 11.089844 C 20.511719 10.351563 20.078125 9.710938 19.550781 9.179688 C 19.019531 8.648438 18.378906 8.21875 17.640625 7.898438 C 16.898438 7.578125 16.128906 7.421875 15.320313 7.421875 C 14.230469 7.421875 13.21875 7.691406 12.300781 8.230469 C 11.378906 8.769531 10.648438 9.5 10.121094 10.410156 C 9.589844 11.328125 9.328125 12.328125 9.328125 13.421875 L 9.328125 13.761719 C 8.328125 14.328125 7.671875 15.160156 7.351563 16.25 C 6.589844 16.488281 5.988281 16.910156 5.539063 17.519531 C 5.089844 18.128906 4.859375 18.828125 4.859375 19.609375 Z M 6.421875 5.449219 C 6.421875 5.730469 6.511719 5.960938 6.679688 6.121094 L 8.289063 7.808594 C 8.761719 8.171875 9.230469 8.171875 9.699219 7.808594 C 9.890625 7.621094 9.980469 7.390625 9.980469 7.109375 C 9.980469 6.839844 9.890625 6.609375 9.699219 6.410156 L 8.050781 4.761719 C 7.839844 4.570313 7.601563 4.46875 7.351563 4.46875 C 7.070313 4.46875 6.839844 4.558594 6.671875 4.75 C 6.5 4.941406 6.421875 5.171875 6.421875 5.449219 Z M 6.839844 19.609375 C 6.839844 19.191406 6.96875 18.828125 7.238281 18.53125 C 7.511719 18.230469 7.851563 18.058594 8.261719 18.019531 L 8.878906 17.941406 C 9.011719 17.941406 9.078125 17.859375 9.078125 17.710938 L 9.171875 17.148438 C 9.238281 16.570313 9.480469 16.089844 9.898438 15.710938 C 10.320313 15.320313 10.808594 15.128906 11.378906 15.128906 C 11.960938 15.128906 12.46875 15.320313 12.890625 15.710938 C 13.320313 16.101563 13.570313 16.578125 13.640625 17.148438 L 13.71875 17.800781 C 13.78125 17.949219 13.859375 18.03125 13.960938 18.03125 L 15.28125 18.03125 C 15.710938 18.03125 16.078125 18.191406 16.398438 18.5 C 16.71875 18.808594 16.871094 19.179688 16.871094 19.621094 C 16.871094 20.070313 16.710938 20.449219 16.398438 20.769531 C 16.089844 21.089844 15.710938 21.25 15.28125 21.25 L 8.429688 21.25 C 7.980469 21.25 7.601563 21.089844 7.300781 20.769531 C 6.988281 20.449219 6.839844 20.058594 6.839844 19.609375 Z M 11.261719 13.21875 C 11.328125 12.128906 11.75 11.210938 12.53125 10.460938 C 13.300781 9.71875 14.238281 9.339844 15.320313 9.339844 C 16.429688 9.339844 17.378906 9.738281 18.160156 10.53125 C 18.941406 11.320313 19.328125 12.289063 19.328125 13.421875 C 19.328125 14.121094 19.160156 14.769531 18.820313 15.371094 C 18.480469 15.96875 18.019531 16.449219 17.441406 16.820313 C 16.851563 16.328125 16.171875 16.089844 15.410156 16.089844 C 15.121094 15.210938 14.601563 14.519531 13.871094 14 C 13.140625 13.480469 12.308594 13.21875 11.390625 13.21875 Z M 14.351563 4.46875 C 14.351563 4.738281 14.449219 4.980469 14.640625 5.171875 C 14.828125 5.359375 15.058594 5.460938 15.328125 5.460938 C 15.609375 5.460938 15.839844 5.359375 16.03125 5.171875 C 16.21875 4.980469 16.320313 4.75 16.320313 4.46875 L 16.320313 2.128906 C 16.320313 1.871094 16.21875 1.648438 16.03125 1.46875 C 15.839844 1.289063 15.609375 1.199219 15.328125 1.199219 C 15.058594 1.199219 14.828125 1.289063 14.640625 1.46875 C 14.449219 1.648438 14.351563 1.871094 14.351563 2.128906 Z M 20.671875 19.699219 C 20.671875 19.96875 20.761719 20.199219 20.941406 20.398438 L 22.578125 22.019531 C 23 22.441406 23.46875 22.441406 23.988281 22.019531 C 24.171875 21.851563 24.25 21.628906 24.25 21.339844 C 24.25 21.070313 24.160156 20.851563 23.988281 20.671875 L 22.300781 19 C 22.121094 18.828125 21.890625 18.75 21.621094 18.75 C 21.339844 18.75 21.121094 18.839844 20.941406 19.019531 C 20.761719 19.199219 20.671875 19.429688 20.671875 19.699219 Z M 20.671875 7.089844 C 20.671875 7.371094 20.761719 7.609375 20.941406 7.808594 C 21.121094 7.988281 21.351563 8.078125 21.621094 8.078125 C 21.890625 8.078125 22.121094 7.988281 22.300781 7.808594 L 23.988281 6.121094 C 24.171875 5.949219 24.25 5.730469 24.25 5.449219 C 24.25 5.171875 24.148438 4.941406 23.960938 4.761719 C 23.769531 4.578125 23.539063 4.480469 23.261719 4.480469 C 23 4.480469 22.769531 4.578125 22.578125 4.769531 L 20.941406 6.398438 C 20.761719 6.578125 20.671875 6.808594 20.671875 7.089844 Z M 23.25 13.429688 C 23.25 13.699219 23.339844 13.921875 23.53125 14.101563 C 23.71875 14.28125 23.960938 14.359375 24.25 14.359375 L 25.941406 14.359375 C 26.210938 14.359375 26.441406 14.269531 26.628906 14.089844 C 26.820313 13.910156 26.921875 13.691406 26.921875 13.429688 C 26.921875 13.140625 26.828125 12.898438 26.640625 12.71875 C 26.449219 12.539063 26.21875 12.441406 25.949219 12.441406 L 24.261719 12.441406 C 23.96875 12.441406 23.730469 12.53125 23.539063 12.71875 C 23.351563 12.890625 23.25 13.128906 23.25 13.429688 Z M 23.25 13.429688 "/>
</g>
</svg>

<?xml version="1.0" encoding="utf-8"?>
<!-- Generator: Adobe Illustrator 22.0.1, SVG Export Plug-In . SVG Version: 6.00 Build 0)  -->
<svg version="1.1" id="Layer_1" xmlns="http://www.w3.org/2000/svg" xmlns:xlink="http://www.w3.org/1999/xlink" x="0px" y="0px"
	 viewBox="0 0 30 30" style="enable-background:new 0 0 30 30;" xml:space="preserve">
<path d="M3.09,13.43c0,0.27,0.09,0.49,0.28,0.67s0.43,0.26,0.72,0.26h1.69c0.27,0,0.5-0.09,0.69-0.27s0.29-0.4,0.29-0.66
	c0-0.29-0.09-0.53-0.28-0.71s-0.42-0.28-0.69-0.28H4.09c-0.29,0-0.53,0.09-0.72,0.28C3.18,12.89,3.09,13.13,3.09,13.43z M4.86,19.61
	c0,0.97,0.35,1.81,1.06,2.52c0.71,0.71,1.54,1.06,2.51,1.06h6.86c0.97,0,1.8-0.35,2.49-1.05c0.69-0.7,1.04-1.54,1.04-2.53
	c0-0.48-0.07-0.89-0.21-1.23c0.83-0.53,1.49-1.24,1.97-2.12c0.48-0.88,0.73-1.83,0.73-2.84c0-0.81-0.16-1.59-0.48-2.33
	c-0.32-0.74-0.75-1.38-1.28-1.91c-0.53-0.53-1.17-0.96-1.91-1.28c-0.74-0.32-1.51-0.48-2.32-0.48c-1.09,0-2.1,0.27-3.02,0.81
	s-1.65,1.27-2.18,2.18c-0.53,0.92-0.79,1.92-0.79,3.01v0.34c-1,0.57-1.66,1.4-1.98,2.49c-0.76,0.24-1.36,0.66-1.81,1.27
	C5.09,18.13,4.86,18.83,4.86,19.61z M6.42,5.45c0,0.28,0.09,0.51,0.26,0.67l1.61,1.69c0.47,0.36,0.94,0.36,1.41,0
	c0.19-0.19,0.28-0.42,0.28-0.7c0-0.27-0.09-0.5-0.28-0.7L8.05,4.76C7.84,4.57,7.6,4.47,7.35,4.47c-0.28,0-0.51,0.09-0.68,0.28
	C6.5,4.94,6.42,5.17,6.42,5.45z M6.84,19.61c0-0.42,0.13-0.78,0.4-1.08c0.27-0.3,0.61-0.47,1.02-0.51l0.62-0.08
	c0.13,0,0.2-0.08,0.2-0.23l0.09-0.56c0.07-0.58,0.31-1.06,0.73-1.44c0.42-0.39,0.91-0.58,1.48-0.58c0.58,0,1.09,0.19,1.51,0.58
	c0.43,0.39,0.68,0.87,0.75,1.44l0.08,0.65c0.06,0.15,0.14,0.23,0.24,0.23h1.32c0.43,0,0.8,0.16,1.12,0.47
	c0.32,0.31,0.47,0.68,0.47,1.12c0,0.45-0.16,0.83-0.47,1.15s-0.69,0.48-1.12,0.48H8.43c-0.45,0-0.83-0.16-1.13-0.48
	C6.99,20.45,6.84,20.06,6.84,19.61z M11.26,13.22c0.07-1.09,0.49-2.01,1.27-2.76c0.77-0.74,1.71-1.12,2.79-1.12
	c1.11,0,2.06,0.4,2.84,1.19c0.78,0.79,1.17,1.76,1.17,2.89c0,0.7-0.17,1.35-0.51,1.95c-0.34,0.6-0.8,1.08-1.38,1.45
	c-0.59-0.49-1.27-0.73-2.03-0.73c-0.29-0.88-0.81-1.57-1.54-2.09c-0.73-0.52-1.56-0.78-2.48-0.78H11.26z M14.35,4.47
	c0,0.27,0.1,0.51,0.29,0.7c0.19,0.19,0.42,0.29,0.69,0.29c0.28,0,0.51-0.1,0.7-0.29c0.19-0.19,0.29-0.42,0.29-0.7V2.13
	c0-0.26-0.1-0.48-0.29-0.66c-0.19-0.18-0.42-0.27-0.7-0.27c-0.27,0-0.5,0.09-0.69,0.27c-0.19,0.18-0.29,0.4-0.29,0.66V4.47z
	 M20.67,19.7c0,0.27,0.09,0.5,0.27,0.7l1.64,1.62c0.42,0.42,0.89,0.42,1.41,0c0.18-0.17,0.26-0.39,0.26-0.68
	c0-0.27-0.09-0.49-0.26-0.67L22.3,19c-0.18-0.17-0.41-0.25-0.68-0.25c-0.28,0-0.5,0.09-0.68,0.27C20.76,19.2,20.67,19.43,20.67,19.7
	z M20.67,7.09c0,0.28,0.09,0.52,0.27,0.72c0.18,0.18,0.41,0.27,0.68,0.27c0.27,0,0.5-0.09,0.68-0.27l1.69-1.69
	c0.18-0.17,0.26-0.39,0.26-0.67c0-0.28-0.1-0.51-0.29-0.69s-0.42-0.28-0.7-0.28c-0.26,0-0.49,0.1-0.68,0.29L20.94,6.4
	C20.76,6.58,20.67,6.81,20.67,7.09z M23.25,13.43c0,0.27,0.09,0.49,0.28,0.67s0.43,0.26,0.72,0.26h1.69c0.27,0,0.5-0.09,0.69-0.27
	s0.29-0.4,0.29-0.66c0-0.29-0.09-0.53-0.28-0.71s-0.42-0.28-0.69-0.28h-1.69c-0.29,0-0.53,0.09-0.72,0.28
	C23.35,12.89,23.25,13.13,23.25,13.43z"/>
</svg>
